Adwaita++/apps/16/mypaint.svg

<svg height="16" width="16" xmlns="http://www.w3.org/2000/svg">
  <path d="m3.5839844 0c-1.4229725 0-2.5839844 1.1610115-2.5839844 2.5839844v8.8320316c-.00190323 1.421375 1.1626098 2.585888 2.5839844 2.583984h1.0820312l-.6660156 2h2l.6660156-2h3.1679688l.6660156 2h2l-.666016-2h.582032c1.422024.001906 2.586952-1.163677 2.583984-2.585938v-5.4960932-.5039063h-1.005859v.5039063 5.4980472a.50281277.50281277 0 0 0 0 .001953c.0018.877999-.698174 1.578005-1.576172 1.576172a.50281277.50281277 0 0 0 -.001953 0h-8.8320316a.50281277.50281277 0 0 0 -.0019532 0c-.8779976.0018-1.5780043-.698174-1.5761718-1.576172a.50281277.50281277 0 0 0 0-.001953v-8.8320316c0-.8835459.6945799-1.578125 1.578125-1.578125h5.4980468.5039063v-1.0058594h-.5039063zm10.3105466.53320312a1.761 1.761 0 0 0 -1.201172.43359376l-4.3593746 4.35937502a2.968 2.968 0 0 0 -1.3339844-.3261719 3 3 0 0 0 -3 3v3h3a3 3 0 0 0 3-3c0-.571-.1683125-1.0996875-.4453125-1.5546875l5.4453125-5.4453125a1.627 1.627 0 0 0 -1.105469-.46679688z" fill="#444"/>
</svg>

<svg xmlns="http://www.w3.org/2000/svg" width="16" height="16" version="1.1">
 <path fill="#444" d="M 3.5839844 0 C 2.1610119 0 1 1.1610115 1 2.5839844 L 1 11.416016 C 0.99809677 12.837391 2.1626098 14.001904 3.5839844 14 L 4.6660156 14 L 4 16 L 6 16 L 6.6660156 14 L 9.8339844 14 L 10.5 16 L 12.5 16 L 11.833984 14 L 12.416016 14 C 13.83804 14.001906 15.002968 12.836323 15 11.414062 L 15 5.9179688 L 15 5.4140625 L 13.994141 5.4140625 L 13.994141 5.9179688 L 13.994141 11.416016 A 0.50281277 0.50281277 0 0 0 13.994141 11.417969 C 13.995941 12.295968 13.295967 12.995974 12.417969 12.994141 A 0.50281277 0.50281277 0 0 0 12.416016 12.994141 L 3.5839844 12.994141 A 0.50281277 0.50281277 0 0 0 3.5820312 12.994141 C 2.7040336 12.995941 2.0040269 12.295967 2.0058594 11.417969 A 0.50281277 0.50281277 0 0 0 2.0058594 11.416016 L 2.0058594 2.5839844 C 2.0058594 1.7004385 2.7004393 1.0058594 3.5839844 1.0058594 L 9.0820312 1.0058594 L 9.5859375 1.0058594 L 9.5859375 0 L 9.0820312 0 L 3.5839844 0 z M 13.894531 0.53320312 A 1.761 1.761 0 0 0 12.693359 0.96679688 L 8.3339844 5.3261719 A 2.968 2.968 0 0 0 7 5 A 3 3 0 0 0 4 8 L 4 11 L 7 11 A 3 3 0 0 0 10 8 C 10 7.429 9.8316875 6.9003125 9.5546875 6.4453125 L 15 1 A 1.627 1.627 0 0 0 13.894531 0.53320312 z"/>
</svg>
